Origami/64x64/apps/postr.svg

<svg width="64" height="64" version="1" xmlns="http://www.w3.org/2000/svg">
 <path d="m6.8 5h50.4c1.5512 0 2.8 1.2488 2.8 2.8v45.324668l-3.448276 3.881698c-1.030207 1.159696-0.623586 1.297133-2.004244 2.004244l-3.88435 1.98939h-43.86313c-1.5512 0-2.8-1.2488-2.8-2.8v-50.4c0-1.5512 1.2488-2.8 2.8-2.8z" style="opacity:.2"/>
 <path d="m6.8 4h50.4c1.5512 0 2.8 1.2488 2.8 2.8v46.059416l-2.65252 3.942706c-0.865878 1.287042-1.37124 1.400202-2.8 2.004244l-2.823342 1.193634h-44.924138c-1.5512 0-2.8-1.2488-2.8-2.8v-50.4c0-1.5512 1.2488-2.8 2.8-2.8z" style="fill:#cccccc"/>
 <circle cx="19.5" cy="31.5" r="10.5" style="fill:#2b8ede"/>
 <circle cx="44.5" cy="31.5" r="10.5" style="fill:#d74c94"/>
 <path d="M 6.8007812 4 C 5.2495812 4 4 5.2495812 4 6.8007812 L 4 7.8007812 C 4 6.2495813 5.2495812 5 6.8007812 5 L 57.199219 5 C 58.750419 5 60 6.2495812 60 7.8007812 L 60 6.8007812 C 60 5.2495813 58.750419 4 57.199219 4 L 6.8007812 4 z" style="fill:#ffffff;opacity:.2"/>
 <circle cx="50" cy="49" r="14" style="opacity:.2"/>
 <circle cx="50" cy="48" r="14" style="fill:#9a3cdb"/>
 <path d="m49.966 40-5.9656 8h4v8h4v-8h4z" style="fill:#ffffff"/>
</svg>

<svg xmlns="http://www.w3.org/2000/svg" width="64" height="64" version="1">
 <path style="opacity:0.2" d="M 6.8,5 57.2,5 C 58.7512,5 60,6.2488 60,7.8 l 0,45.324668 -3.448276,3.881698 c -1.030207,1.159696 -0.623586,1.297133 -2.004244,2.004244 L 50.66313,61 6.8,61 C 5.2488,61 4,59.7512 4,58.2 L 4,7.8 C 4,6.2488 5.2488,5 6.8,5 Z"/>
 <path style="fill:#cccccc" d="M 6.8,4 57.2,4 C 58.7512,4 60,5.2488 60,6.8 l 0,46.059416 -2.65252,3.942706 c -0.865878,1.287042 -1.37124,1.400202 -2.8,2.004244 L 51.724138,60 6.8,60 C 5.2488,60 4,58.7512 4,57.2 L 4,6.8 C 4,5.2488 5.2488,4 6.8,4 Z"/>
 <circle style="fill:#2b8ede" cx="19.5" cy="31.5" r="10.5"/>
 <circle style="fill:#d74c94" cx="44.5" cy="31.5" r="10.5"/>
 <path style="opacity:0.2;fill:#ffffff" d="M 6.8007812 4 C 5.2495812 4 4 5.2495812 4 6.8007812 L 4 7.8007812 C 4 6.2495813 5.2495812 5 6.8007812 5 L 57.199219 5 C 58.750419 5 60 6.2495812 60 7.8007812 L 60 6.8007812 C 60 5.2495813 58.750419 4 57.199219 4 L 6.8007812 4 z"/>
 <circle style="opacity:0.2" cx="50" cy="49" r="14"/>
 <circle style="fill:#9a3cdb" cx="50" cy="48" r="14"/>
 <path style="fill:#ffffff" d="m 49.966,40 -5.9656,8 4,0 0,8 4,0 0,-8 4,0 z"/>
</svg>
